img/icon-view-page.svg

<svg fill="none" height="24" viewBox="0 0 24 24" width="24" xmlns="http://www.w3.org/2000/svg" xmlns:xlink="http://www.w3.org/1999/xlink"><clipPath id="a"><path d="m0 0h24v24h-24z"/></clipPath><g clip-path="url(#a)" stroke="#fff" stroke-linecap="round" stroke-linejoin="round" stroke-width="2"><path d="m20.2133 8.33275h-4.5467c-.736 0-1.3333-.59733-1.3333-1.33333v-4.53067"/><path d="m13.5 21.6654h4.1667c1.4734 0 2.6667-1.1934 2.6667-2.6667v-10.11467c0-.35333-.14-.692-.3907-.94267l-5.2186-5.21866c-.2494-.25067-.5894-.39067-.9427-.39067h-7.44799c-1.47333 0-2.66666 1.19333-2.66666 2.66667v7.5013"/><path d="m9.24867 21.7809.00562-5.1854-5.18544-.0057"/><path d="m9.25531 16.5992-4.75531 4.9008"/></g></svg>

<svg width="24" height="24" viewBox="0 0 24 24" fill="none" xmlns="http://www.w3.org/2000/svg">
<g clip-path="url(#clip0_1010_3298)">
<path d="M20.2133 8.33275H15.6666C14.9306 8.33275 14.3333 7.73542 14.3333 6.99942V2.46875" stroke="white" stroke-width="2" stroke-linecap="round" stroke-linejoin="round"/>
<path d="M13.5 21.6654H17.6667C19.1401 21.6654 20.3334 20.472 20.3334 18.9987V8.88403C20.3334 8.5307 20.1934 8.19203 19.9427 7.94136L14.7241 2.7227C14.4747 2.47203 14.1347 2.33203 13.7814 2.33203H6.33341C4.86008 2.33203 3.66675 3.52536 3.66675 4.9987V12.5" stroke="white" stroke-width="2" stroke-linecap="round" stroke-linejoin="round"/>
<path d="M9.24867 21.7809L9.25429 16.5955L4.06885 16.5898" stroke="white" stroke-width="2" stroke-linecap="round" stroke-linejoin="round"/>
<path d="M9.25531 16.5992L4.5 21.5" stroke="white" stroke-width="2" stroke-linecap="round" stroke-linejoin="round"/>
</g>
<defs>
<clipPath id="clip0_1010_3298">
<rect width="24" height="24" fill="white"/>
</clipPath>
</defs>
</svg>
